src/assets/img/Home/icons/greenbriefcase.fill.svg

<svg width="33" height="28" viewBox="0 0 33 28" fill="none" xmlns="http://www.w3.org/2000/svg">
<g id="briefcase.fill">
<g id="Group">
<path id="Vector" d="M14.5454 18.1814C13.5908 18.1814 13.0316 17.644 13.0316 16.6796V15.5637C9.02211 15.2881 5.02625 14.4615 0.880371 12.877V10.6038C5.98089 12.8633 11.0951 13.6624 16.6593 13.6624C22.2372 13.6624 27.3513 12.8633 32.4518 10.6038V12.877C28.3059 14.4615 24.31 15.2881 20.3006 15.5637V16.6796C20.3006 17.644 19.7414 18.1814 18.7867 18.1814H14.5454ZM5.09444 27.3432H28.2377C31.0608 27.3432 32.4518 25.9656 32.4518 23.1412V9.73586C32.4518 6.9115 31.0608 5.53378 28.2377 5.53378H5.09444C2.28506 5.53378 0.880371 6.9115 0.880371 9.73586V23.1412C0.880371 25.9656 2.28506 27.3432 5.09444 27.3432ZM9.74492 6.7324H11.8588V4.29382C11.8588 3.24673 12.4725 2.65431 13.5362 2.65431H19.7959C20.8597 2.65431 21.4598 3.24673 21.4598 4.29382V6.70485H23.5736V4.44537C23.5736 1.85523 22.2234 0.642822 19.7551 0.642822H13.5635C11.2314 0.642822 9.74492 1.85523 9.74492 4.44537V6.7324Z" fill="#CAFF33"/>
</g>
</g>
</svg>

<svg xmlns="http://www.w3.org/2000/svg" width="33" height="28" fill="none"><path fill="#CAFF33" d="M14.545 18.181c-.954 0-1.513-.537-1.513-1.501v-1.116A41.554 41.554 0 0 1 .88 12.877v-2.273c5.1 2.26 10.215 3.058 15.78 3.058 5.577 0 10.691-.799 15.792-3.058v2.273A41.555 41.555 0 0 1 20.3 15.564v1.116c0 .964-.56 1.501-1.514 1.501h-4.242Zm-9.45 9.162h23.143c2.823 0 4.214-1.377 4.214-4.202V9.736c0-2.825-1.391-4.202-4.214-4.202H5.094C2.285 5.534.88 6.912.88 9.736V23.14c0 2.825 1.405 4.202 4.214 4.202Zm4.65-20.61h2.114v-2.44c0-1.046.614-1.639 1.677-1.639h6.26c1.064 0 1.664.593 1.664 1.64v2.41h2.114V4.446c0-2.59-1.35-3.802-3.819-3.802h-6.191c-2.333 0-3.82 1.212-3.82 3.802v2.287Z"/></svg>
